rospo-icon-theme-classic-common/64x64/apps/com.github.jmoerman.go-for-it.svg

<svg height="64" width="64" xmlns="http://www.w3.org/2000/svg"><g transform="translate(0 16)"><ellipse cx="10.607" cy="65.761" opacity=".2" rx="6.529" ry="5.419" transform="matrix(.70710678 -.70710678 .70710678 .70710678 0 0)"/><ellipse cx="11.314" cy="65.054" fill="#4e4e4e" rx="6.529" ry="5.419" transform="matrix(.70710678 -.70710678 .70710678 .70710678 0 0)"/><path d="m31.999999-11c-15.449429 0-27.9999984 12.5505654-27.9999984 27.999999 0 15.449435 12.5505694 28.000004 27.9999984 27.999998 15.449432 0 28.000013-12.550563 27.999999-27.999998 0-15.4494336-12.550567-27.999999-27.999999-27.999999z" opacity=".2"/><path d="m31.999999-11.999998c-15.449429 0-27.9999984 12.55056557-27.9999984 27.999999 0 15.449435 12.5505694 28.000004 27.9999984 27.999998 15.449432 0 28.000013-12.550563 27.999999-27.999998 0-15.44943343-12.550567-27.999999-27.999999-27.999999z" fill="#707070"/><path d="m32 4c-15.449429 0-28 12.550567-28 28 0 .113454.0112975.224124.0175781.335938.3546841-15.142345 12.7557239-27.335938 27.9824219-27.335938 15.2267 0 27.627738 12.193593 27.982422 27.335938.00628-.111814.017578-.222484.017578-.335938 0-15.449433-12.550568-28-28-28z" fill="#fff" opacity=".1" transform="translate(0 -16)"/><path d="m32.000001-7.0000002c-13.242372 0-24.0000002 10.7576235-24.0000002 23.9999972 0 13.242373 10.7576282 24.000002 24.0000002 23.999999 13.24237 0 24.000005-10.757626 23.999997-23.999999 0-13.2423737-10.757627-23.9999972-23.999997-23.9999972z" opacity=".2"/><path d="m32.000001-7.999998c-13.242372 0-24.0000002 10.7576235-24.0000002 23.999997 0 13.242373 10.7576282 24.000003 24.0000002 23.999999 13.24237 0 24.000005-10.757626 23.999997-23.999999 0-13.2423735-10.757627-23.999997-23.999997-23.999997z" fill="#f7f7f7"/><path d="m31.999999 11.000001c-3.310591 0-5.999999 2.689408-5.999999 6s2.689408 5.999999 5.999999 5.999999c3.310592 0 6-2.689407 6-5.999999s-2.689408-6-6-6z" opacity=".2"/><path d="m59.177978-10.159586c1.096026 1.096028 1.096026 2.8607499 0 3.9567759l-25.359553 25.3595551-.913474-.299224c-1.473004-.482506-.69522 3.088313-1.791248 1.992288-1.096026-1.096028-1.877087-1.707044-1.385938-3.177188l1.173338-3.512106 24.320099-24.320101c1.096028-1.096026 2.860748-1.096026 3.956776 0z" opacity=".1"/><path d="m59.177978-11.159646c1.096026 1.096028 1.096026 2.86075 0 3.956776l-25.359553 25.359555-.913474-.299224c-1.473004-.482506-.69522 3.088314-1.791248 1.992288-1.096026-1.096028-1.877087-1.707044-1.385938-3.177188l1.173338-3.512106 24.320099-24.320101c1.096028-1.096026 2.860748-1.096026 3.956776 0z" fill="#30b630"/><path d="m14.377285 7.4742602c-.775009 1.342354-.318266 3.0469438 1.024087 3.8219518l17.673477 10.203788.635658-1.589314c.575608-1.439176 1.227898.664748 2.002906-.677604.775008-1.342354-1.014012.0946-.590982-1.39656l.393858-1.388346-17.317052-9.9980037c-1.342355-.775008-3.046944-.318264-3.821952 1.0240879z" opacity=".1"/><path d="m14.377285 6.4742003c-.775009 1.342354-.318266 3.0469439 1.024087 3.8219517l17.673477 10.203788.635658-1.589314c.575608-1.439176 1.227898.664748 2.002906-.677604.775008-1.342354-1.014012.0946-.590982-1.39656l.393858-1.388346-17.317052-9.9980036c-1.342355-.775008-3.046944-.318264-3.821952 1.0240879z" fill="#30b630"/><path d="m31.999999 10.000001c-3.310591 0-5.999999 2.689408-5.999999 6s2.689408 5.999999 5.999999 5.999999c3.310592 0 6-2.689407 6-5.999999s-2.689408-6-6-6z" fill="#707070"/></g></svg>

<svg xmlns="http://www.w3.org/2000/svg" width="64" height="64" version="1.1">
 <g transform="translate(0,16)">
  <ellipse cx="10.607" cy="65.761" rx="6.529" ry="5.419" transform="matrix(0.70710678,-0.70710678,0.70710678,0.70710678,0,0)" style="opacity:0.2"/>
  <ellipse style="fill:#4e4e4e" cx="11.314" cy="65.054" rx="6.529" ry="5.419" transform="matrix(0.70710678,-0.70710678,0.70710678,0.70710678,0,0)"/>
  <path style="opacity:0.2" d="M 31.999999,-11 C 16.55057,-11 4.0000006,1.5505654 4.0000006,16.999999 c 0,15.449435 12.5505694,28.000004 27.9999984,27.999998 15.449432,0 28.000013,-12.550563 27.999999,-27.999998 C 59.999998,1.5505654 47.449431,-11 31.999999,-11 Z"/>
  <path d="m 31.999999,-11.999998 c -15.449429,0 -27.9999984,12.55056557 -27.9999984,27.999999 0,15.449435 12.5505694,28.000004 27.9999984,27.999998 15.449432,0 28.000013,-12.550563 27.999999,-27.999998 0,-15.44943343 -12.550567,-27.999999 -27.999999,-27.999999 z" style="fill:#707070"/>
  <path style="opacity:0.1;fill:#ffffff" d="M 32 4 C 16.550571 4 4 16.550567 4 32 C 4 32.113454 4.0112975 32.224124 4.0175781 32.335938 C 4.3722622 17.193593 16.773302 5 32 5 C 47.2267 5 59.627738 17.193593 59.982422 32.335938 C 59.988702 32.224124 60 32.113454 60 32 C 60 16.550567 47.449432 4 32 4 z" transform="translate(0,-16)"/>
  <path style="opacity:0.2" d="m 32.000001,-7.0000002 c -13.242372,0 -24.0000002,10.7576235 -24.0000002,23.9999972 0,13.242373 10.7576282,24.000002 24.0000002,23.999999 13.24237,0 24.000005,-10.757626 23.999997,-23.999999 0,-13.2423737 -10.757627,-23.9999972 -23.999997,-23.9999972 z"/>
  <path d="m 32.000001,-7.999998 c -13.242372,0 -24.0000002,10.7576235 -24.0000002,23.999997 0,13.242373 10.7576282,24.000003 24.0000002,23.999999 13.24237,0 24.000005,-10.757626 23.999997,-23.999999 0,-13.2423735 -10.757627,-23.999997 -23.999997,-23.999997 z" style="fill:#f7f7f7"/>
  <path d="m 31.999999,11.000001 c -3.310591,0 -5.999999,2.689408 -5.999999,6 C 26,20.310593 28.689408,23 31.999999,23 c 3.310592,0 6,-2.689407 6,-5.999999 0,-3.310592 -2.689408,-6 -6,-6 z" style="opacity:0.2"/>
  <path d="m 59.177978,-10.159586 c 1.096026,1.096028 1.096026,2.8607499 0,3.9567759 L 33.818425,19.156745 32.904951,18.857521 c -1.473004,-0.482506 -0.69522,3.088313 -1.791248,1.992288 -1.096026,-1.096028 -1.877087,-1.707044 -1.385938,-3.177188 l 1.173338,-3.512106 24.320099,-24.320101 c 1.096028,-1.096026 2.860748,-1.096026 3.956776,0 z" style="opacity:0.1"/>
  <path style="fill:#30b630" d="m 59.177978,-11.159646 c 1.096026,1.096028 1.096026,2.86075 0,3.956776 L 33.818425,18.156685 32.904951,17.857461 c -1.473004,-0.482506 -0.69522,3.088314 -1.791248,1.992288 -1.096026,-1.096028 -1.877087,-1.707044 -1.385938,-3.177188 l 1.173338,-3.512106 24.320099,-24.320101 c 1.096028,-1.096026 2.860748,-1.096026 3.956776,0 z"/>
  <path d="m 14.377285,7.4742602 c -0.775009,1.342354 -0.318266,3.0469438 1.024087,3.8219518 L 33.074849,21.5 33.710507,19.910686 c 0.575608,-1.439176 1.227898,0.664748 2.002906,-0.677604 0.775008,-1.342354 -1.014012,0.0946 -0.590982,-1.39656 L 35.516289,16.448176 18.199237,6.4501723 c -1.342355,-0.775008 -3.046944,-0.318264 -3.821952,1.0240879 z" style="opacity:0.1"/>
  <path style="fill:#30b630" d="m 14.377285,6.4742003 c -0.775009,1.342354 -0.318266,3.0469439 1.024087,3.8219517 l 17.673477,10.203788 0.635658,-1.589314 c 0.575608,-1.439176 1.227898,0.664748 2.002906,-0.677604 0.775008,-1.342354 -1.014012,0.0946 -0.590982,-1.39656 L 35.516289,15.448116 18.199237,5.4501124 c -1.342355,-0.775008 -3.046944,-0.318264 -3.821952,1.0240879 z"/>
  <path style="fill:#707070" d="m 31.999999,10.000001 c -3.310591,0 -5.999999,2.689408 -5.999999,6 C 26,19.310593 28.689408,22 31.999999,22 c 3.310592,0 6,-2.689407 6,-5.999999 0,-3.310592 -2.689408,-6 -6,-6 z"/>
 </g>
</svg>
